static/images/mobile/copyright/wikipedia-wordmark-glk.svg

<?xml version="1.0" encoding="UTF-8"?>
<svg width="77px" height="32px" viewBox="0 0 77 32" version="1.1" xmlns="http://www.w3.org/2000/svg" xmlns:xlink="http://www.w3.org/1999/xlink">
    <title>glk-wordmark</title>
    <g id="Page-1" stroke="none" stroke-width="1" fill="none" fill-rule="evenodd">
        <path d="M74.1318036,13.0506215 C75.6192193,14.8334985 76.4648087,16.3412985 76.6685742,17.5740215 C76.6685742,17.7574048 76.6685742,17.9611615 76.6685742,18.1852918 C76.6685742,20.9156323 76.5361225,22.5864356 76.2712496,23.197708 C75.1098274,25.6835361 73.9891652,27.410372 72.9092631,28.378222 C70.6169941,30.2425887 68.8341257,31.4498459 67.5606471,32 C67.6217741,31.2359024 67.8153419,30.2171186 68.1413549,28.9436486 C70.9124425,27.5479072 72.9347267,25.2607414 74.2082119,22.0821382 C74.2998948,21.4403055 74.2132976,20.9818538 73.9484225,20.7067811 L73.4899687,20.7526269 C73.1843271,20.874881 72.8379406,20.936008 72.4508093,20.936008 C71.8599103,20.936008 71.2384533,20.7882838 70.586436,20.4928354 C70.6373698,19.3212373 71.0856346,18.0477587 71.9312306,16.6723973 L74.1318036,13.0506215 M73.2454606,16.1986623 C72.5119298,17.1766991 72.1451741,17.8287207 72.1451741,18.1547272 C72.1451741,18.4196153 72.6800297,18.5316804 73.7497581,18.4909269 C74.0044486,18.2362342 74.1318036,17.9713504 74.1318036,17.6962756 C74.1318036,17.3091421 73.8363487,16.8099369 73.2454606,16.1986623 M60.7602658,21.5319949 L58.9417362,21.5319949 L58.9417362,18.9952243 L60.8519553,18.9952243 C61.2798423,18.9952265 61.8147043,18.6692157 62.4565414,18.0171919 C62.1203394,17.4976154 61.9522396,17.1817935 61.9522418,17.0697219 C61.9522396,15.8064365 62.2273101,14.8793443 62.7774577,14.2884432 C63.0728996,14.2680741 63.2257182,14.2782599 63.2359093,14.3190057 C63.5007888,15.1442281 64.0458376,16.1426341 64.8710579,17.31423 C64.1375292,20.1260754 62.7672644,21.5319949 60.7602658,21.5319949 M65.0085931,23.197708 C65.0085866,23.197708 65.6351381,23.8293518 66.8882498,25.0926459 L64.9321849,27.1404002 L63.1595011,25.2607436 L65.0085931,23.197708 M60.8825199,23.1824246 C60.8825177,23.1824246 61.5090692,23.8140684 62.7621765,25.0773625 L60.8061116,27.125119 L59.0334278,25.2454624 L60.8825199,23.1824246 M50.7201521,19.5453676 C49.1410318,20.4418973 47.6026693,21.1041079 46.1050604,21.5319949 L43.7822334,21.5319949 L43.7822334,18.9952243 L44.3476578,18.9952243 C45.6618878,18.8933481 46.7519854,18.4807423 47.6179549,17.7574026 C47.4651341,17.2887664 46.9098963,16.3973311 45.9522439,15.0830946 C45.0760877,13.8809362 44.5055688,12.892717 44.2406872,12.1184327 C44.301812,11.2626651 44.6125416,10.2948216 45.1728738,9.21489994 C45.8452689,7.78861568 46.2578747,6.8462423 46.4106955,6.38777546 C47.7249234,6.07196662 49.7268319,5.28240972 52.4164255,4.0191026 C55.3606987,2.68451431 57.2199775,1.60460566 57.9942683,0.779370144 C58.1980099,0.779370144 58.2998883,0.90164376 58.2999035,1.14613231 C58.2998883,1.45178701 58.0961315,2.00702472 57.6886332,2.81184327 L56.9092631,4.37058356 C55.59502,5.1346877 54.5100169,5.72048784 53.6542494,6.12798397 C52.4520758,6.71889378 49.9153053,7.83955595 46.0439334,9.48997048 C46.3801288,10.7125219 47.1187476,12.1337247 48.2597876,13.7535812 C49.3906322,15.5262715 50.3024431,16.713153 50.9952226,17.31423 C52.2890704,18.4348965 53.9445925,18.9952265 55.9617931,18.9952243 L59.2932171,18.9952243 L59.2932171,21.5319949 L55.9617931,21.5319949 C55.1875065,21.5319949 54.0566576,21.3282403 52.5692441,20.9207246 C51.907027,20.7577214 51.2906623,20.2992698 50.7201521,19.5453676 M39.2741145,15.3581651 C40.3132697,15.2053552 40.853224,15.2410121 40.8939819,15.465138 C41.0671697,16.1681042 41.3065833,16.9118153 41.612225,17.6962756 C41.9280403,18.4807423 42.2387699,18.9137238 42.5444116,18.9952243 L44.0114603,18.9952243 L44.0114603,21.5319949 L42.6361011,21.5319949 C42.5138405,21.5319949 42.1929241,21.4046486 41.673352,21.1499515 C40.9194455,20.7526269 40.4457126,20.3502079 40.252147,19.9426922 L39.9923577,20.2330461 C39.951602,20.4266161 39.671437,20.7067811 39.1518605,21.0735433 C38.6934045,21.3791784 38.4438041,21.5319949 38.4030549,21.5319949 L35.7745928,21.5319949 L35.7745928,18.9952243 L37.6695306,18.9952243 C37.9140365,18.9952265 38.4488986,17.7828749 39.2741145,15.3581651 M41.8414497,23.3963703 C41.8414432,23.3963703 42.4679947,24.0280141 43.7211063,25.2913082 L41.7650415,27.3390625 L39.9923577,25.4594081 L41.8414497,23.3963703 M37.7153764,23.3810891 C37.7153742,23.3810891 38.3419257,24.0127329 39.5950331,25.276027 L37.6389682,27.3237813 L35.8662844,25.4441247 L37.7153764,23.3810891 M31.1442199,15.3581651 C32.183375,15.2053552 32.7233293,15.2410121 32.7640872,15.465138 C32.937275,16.1681042 33.1766887,16.9118153 33.4823303,17.6962756 C33.7981457,18.4807423 34.1088753,18.9137238 34.4145169,18.9952243 L35.8815656,18.9952243 L35.8815656,21.5319949 L34.5062064,21.5319949 C34.3839458,21.5319949 34.0630295,21.4046486 33.5434573,21.1499515 C32.7895508,20.7526269 32.315818,20.3502079 32.1222523,19.9426922 L31.862463,20.2330461 C31.8217073,20.4266161 31.5415423,20.7067811 31.0219658,21.0735433 C30.5635099,21.3791784 30.3139095,21.5319949 30.2731603,21.5319949 L27.6446981,21.5319949 L27.6446981,18.9952243 L29.5396359,18.9952243 C29.7841419,18.9952265 30.3190039,17.7828749 31.1442199,15.3581651 M31.6638007,26.2082136 C31.6637963,26.2082136 32.2903478,26.8398552 33.5434573,28.1031515 L31.5873925,30.1509058 L29.8147087,28.2712513 L31.6638007,26.2082136 M33.7574008,22.8156625 C33.7573943,22.8156625 34.3839458,23.4473084 35.6370575,24.7106003 L33.6809926,26.7583568 L31.9083088,24.8787002 L33.7574008,22.8156625 M29.6313276,22.8003813 C29.6313254,22.8003813 30.2578769,23.432025 31.510982,24.6953191 L29.5549172,26.7430756 L27.7822334,24.863419 L29.6313276,22.8003813 M21.8834759,7.07545398 C22.1177874,7.05509352 22.438704,7.69692622 22.8462264,9.00095426 C23.2333545,10.2846349 23.7580276,12.5106737 24.4202475,15.6790836 C24.9296279,17.2989531 25.6325876,18.4043319 26.5291304,18.9952243 L27.9044874,18.9952243 L27.9044874,21.5319949 L26.5444116,21.5319949 C25.6886202,21.5319949 24.9550974,21.0990134 24.3438386,20.2330461 C24.089132,19.8866618 23.7172763,19.1378563 23.2282705,17.9866273 C22.3928586,19.5963079 21.725556,20.4469918 21.2263602,20.5386813 C20.7475246,20.6405618 19.3874495,21.0531676 17.1461312,21.776503 C15.9541516,22.1228895 15.0270592,22.6781272 14.3648515,23.4422161 C14.2018452,23.2588329 14.1203434,22.9990436 14.1203434,22.662846 C14.1203434,22.4183379 14.1712817,22.0719514 14.2731609,21.6236865 C14.4157896,21.0837322 14.4972923,20.7271568 14.517669,20.5539625 C15.750395,19.5148052 16.9729343,18.9188183 18.1852907,18.7659975 C20.4673592,18.4094264 21.9395004,17.9509748 22.6017183,17.3906404 C22.6526484,15.7605907 21.9802517,13.1932599 20.5845264,9.68863495 L21.8834759,7.07545398 M7.27411628,21.5319949 L5.45558712,21.5319949 L5.45558712,18.9952243 L7.36580682,18.9952243 C7.79369362,18.9952265 8.32855457,18.6692157 8.97039118,18.0171919 C8.63418927,17.4976154 8.46609027,17.1817935 8.46609331,17.0697219 C8.46609027,15.8064365 8.74116146,14.8793443 9.29130818,14.2884432 C9.58675136,14.2680741 9.73956871,14.2782599 9.74976089,14.3190057 C10.0146401,15.1442281 10.5596889,16.1426341 11.3849088,17.31423 C10.6513792,20.1260754 9.28111643,21.5319949 7.27411628,21.5319949 M11.5224447,23.197708 C11.5224386,23.197708 12.1489899,23.8293518 13.4021007,25.0926459 L11.4460358,27.1404002 L9.673352,25.2607436 L11.5224447,23.197708 M7.39637033,23.1824246 C7.39636838,23.1824246 8.02291965,23.8140684 9.27602632,25.0773625 L7.31996144,27.125119 L5.54727766,25.2454624 L7.39637033,23.1824246 M5.60840467,18.9952243 L5.60840467,21.5319949 L5.16523374,21.5319949 C3.48423658,21.5319949 2.38395118,21.2925813 1.86437425,20.813754 C0.886340595,19.8662861 0.39732481,18.4909291 0.397325679,16.6876785 C0.39732481,15.9439718 0.39732481,14.6399307 0.397325679,12.7755488 C0.39732481,10.9111864 0.39732481,9.46451338 0.397325679,8.4355298 C0.39732481,4.59473338 0.264882917,2.34831675 0,1.69627556 L2.3075452,0 C2.71505559,1.02899228 2.96465736,2.59282486 3.05635129,4.69149991 C3.20916523,6.80039648 3.23972871,8.32857217 3.14804183,9.27602697 C3.0869113,10.2235079 3.06144173,11.6905543 3.07163305,13.677173 C3.12256869,15.9898176 3.23972871,17.3651746 3.42311345,17.8032462 C3.64724182,18.3737695 3.86628012,18.6946858 4.080229,18.7659975 C4.60999155,18.9188183 4.97165943,18.9952265 5.16523374,18.9952243 L5.60840467,18.9952243" id="glk-wordmark" fill="#000000" fill-rule="nonzero"></path>
    </g>
</svg>

<svg xmlns="http://www.w3.org/2000/svg" width="77" height="32"><path fill="#000" fill-rule="nonzero" d="M74.132 13.05c1.487 1.783 2.333 3.291 2.537 4.524v.611c0 2.73-.133 4.401-.398 5.013-1.161 2.486-2.282 4.212-3.362 5.18-2.292 1.865-4.075 3.072-5.348 3.622.06-.764.254-1.783.58-3.056 2.771-1.396 4.794-3.683 6.067-6.862.092-.642.005-1.1-.26-1.375l-.458.046a2.779 2.779 0 0 1-1.04.183c-.59 0-1.212-.148-1.864-.443.051-1.172.5-2.445 1.345-3.82l2.2-3.622m-.886 3.148c-.733.978-1.1 1.63-1.1 1.956 0 .265.535.377 1.605.336.254-.255.382-.52.382-.795 0-.387-.296-.886-.887-1.497M60.76 21.532h-1.818v-2.537h1.91c.428 0 .963-.326 1.605-.978-.337-.52-.505-.835-.505-.947 0-1.264.275-2.19.825-2.782.296-.02.449-.01.459.031.265.825.81 1.824 1.635 2.995-.733 2.812-2.104 4.218-4.11 4.218m4.248 1.666 1.88 1.895-1.957 2.047-1.772-1.88 1.849-2.062m-4.126-.016 1.88 1.895-1.957 2.048-1.773-1.88 1.85-2.063M50.72 19.545c-1.579.897-3.117 1.56-4.615 1.987h-2.323v-2.537h.566c1.314-.102 2.404-.514 3.27-1.238-.153-.468-.708-1.36-1.666-2.674-.876-1.202-1.446-2.19-1.711-2.965.06-.855.372-1.823.932-2.903.672-1.426 1.085-2.369 1.238-2.827 1.314-.316 3.316-1.106 6.005-2.369 2.945-1.334 4.804-2.414 5.578-3.24.204 0 .306.123.306.367 0 .306-.204.861-.611 1.666l-.78 1.559c-1.314.764-2.399 1.35-3.255 1.757-1.202.59-3.739 1.712-7.61 3.362.336 1.223 1.075 2.644 2.216 4.264 1.13 1.772 2.042 2.96 2.735 3.56 1.294 1.12 2.95 1.681 4.967 1.681h3.331v2.537h-3.331c-.774 0-1.905-.204-3.393-.611-.662-.163-1.278-.622-1.849-1.376m-11.446-4.187c1.04-.153 1.58-.117 1.62.107.173.703.413 1.447.718 2.231.316.785.627 1.218.932 1.3h1.467v2.536h-1.375c-.122 0-.443-.127-.963-.382-.754-.397-1.227-.8-1.42-1.207l-.26.29c-.041.194-.322.474-.841.84-.459.306-.708.459-.749.459h-2.628v-2.537h1.895c.244 0 .779-1.212 1.604-3.637m2.567 8.038 1.88 1.895-1.956 2.048-1.773-1.88 1.85-2.063m-4.127-.015 1.88 1.895-1.956 2.048-1.773-1.88 1.85-2.063m-6.572-8.023c1.04-.153 1.58-.117 1.62.107.173.703.413 1.447.718 2.231.316.785.627 1.218.933 1.3h1.467v2.536h-1.376c-.122 0-.443-.127-.963-.382-.753-.397-1.227-.8-1.42-1.207l-.26.29c-.041.194-.321.474-.841.84-.458.306-.708.459-.749.459h-2.628v-2.537h1.895c.244 0 .779-1.212 1.604-3.637m.52 10.85 1.88 1.895-1.957 2.048-1.772-1.88 1.849-2.063m2.093-3.392 1.88 1.895-1.956 2.047-1.773-1.88 1.85-2.062M29.63 22.8l1.88 1.895-1.956 2.048-1.773-1.88 1.85-2.063M21.882 7.075c.235-.02.556.622.963 1.926.387 1.284.912 3.51 1.574 6.678.51 1.62 1.213 2.725 2.11 3.316h1.374v2.537h-1.36c-.855 0-1.589-.433-2.2-1.299-.255-.346-.627-1.095-1.116-2.246-.835 1.61-1.502 2.46-2.002 2.552-.478.102-1.839.514-4.08 1.238-1.192.346-2.119.901-2.781 1.665-.163-.183-.245-.443-.245-.78 0-.244.051-.59.153-1.038.143-.54.224-.897.245-1.07 1.232-1.04 2.455-1.635 3.667-1.788 2.282-.357 3.755-.815 4.417-1.375.05-1.63-.622-4.198-2.017-7.702l1.298-2.614M7.274 21.532H5.456v-2.537h1.91c.428 0 .963-.326 1.604-.978-.336-.52-.504-.835-.504-.947 0-1.264.275-2.19.825-2.782.296-.02.449-.01.459.031.265.825.81 1.824 1.635 2.995-.734 2.812-2.104 4.218-4.11 4.218m4.247 1.666 1.88 1.895-1.956 2.047-1.773-1.88 1.85-2.062m-4.127-.016 1.88 1.895-1.956 2.048-1.773-1.88 1.85-2.063m-1.789-4.187v2.537h-.443c-1.68 0-2.781-.24-3.3-.718C.885 19.866.396 18.49.396 16.688a2799828.88 2799828.88 0 0 1 0-8.252c0-3.841-.132-6.088-.397-6.74L2.308 0c.407 1.029.657 2.593.748 4.691.153 2.11.184 3.638.092 4.585-.061.948-.087 2.415-.076 4.401.05 2.313.168 3.688.351 4.126.224.57.443.892.657.963.53.153.892.23 1.085.23h.443"/></svg>
